images/UpgradeGraphics/BCHUpgrades_Icons/7.svg

<svg xmlns="http://www.w3.org/2000/svg" fill="none" viewBox="0 0 658.59 774" xmlns:v="https://vecta.io/nano"><g fill="#fff"><use href="#M"/><use href="#M" y="-26"/><use href="#M" x="-228" y="-125"/></g><path transform="matrix(.866025 .5 0 1 14 476)" fill="url(#A)" d="M0 0h372v112H0z"/><use href="#M" x="-228" y="-154.176" fill="#fff"/><path transform="matrix(.866025 -.5 .866025 .5 14 476)" fill="url(#B)" d="M0 0h372v372.312H0z"/><path transform="matrix(.866025 -.5 .866025 .5 86.5859 475.001)" fill="url(#C)" d="M0 0h288.001v287.999H0z" style="mix-blend-mode:screen"/><path d="M336 303.002L657.5 133L585.417 476.052L336 620.053V303.002Z" fill="url(#D)" style="mix-blend-mode:screen"/><path transform="matrix(.866025 -.5 0 1 336 662)" fill="url(#E)" d="M0 0h372v112H0z"/><path transform="matrix(.898826 -.438306 .898826 .438306 154 105.751)" fill="url(#F)" d="M0 0h202.486v203.753H0z"/><path transform="matrix(.898826 .438306 0 1 154 105.751)" fill="url(#G)" d="M0 0h202.486v177.502H0z"/><path transform="matrix(.898826 -.438306 0 1 335.953 194.727)" fill="url(#H)" d="M0 0h202.486v177.502H0z"/><path d="M359.188 305.85v-70l11.605-6.7 25.807 34.5-6.148 3.55 25.374-64.05 11.518-6.65.173 69.9-13.163 7.6-.087-46.65 2.425-1.4-20.265 51-6.322 3.65-20.698-27.35 2.945-1.7v46.7l-13.164 7.6zm82.712-47.754v-70l29.618-17.1c7.621-4.4 13.337-6.033 17.148-4.9 3.868 1.1 5.802 4.383 5.802 9.85 0 3.667-.779 7.317-2.338 10.95-1.559 3.567-3.695 6.867-6.409 9.9a37.88 37.88 0 0 1-9.353 7.6l1.645-5.05c3.811-2.2 7.188-3.417 10.133-3.65 2.944-.3 5.225.483 6.842 2.35 1.674 1.833 2.511 4.783 2.511 8.85 0 6-2.05 11.883-6.149 17.65-4.099 5.7-10.132 10.85-18.1 15.45l-31.35 18.1zm13.943-20.25l16.368-9.45c3.637-2.1 6.38-4.35 8.227-6.75 1.906-2.5 2.858-5.25 2.858-8.25 0-2.933-.952-4.55-2.858-4.85-1.847-.4-4.59.45-8.227 2.55l-17.407 10.05v-11.8l14.982-8.65c3.407-1.967 6.005-4.133 7.794-6.5 1.848-2.467 2.772-5.1 2.772-7.9 0-2.733-.924-4.233-2.772-4.5-1.789-.367-4.387.433-7.794 2.4l-13.943 8.05v45.6zM234.731 268.35v-64l6.062 10.5-18.187-10.5v-13l26.154 15.1v70l-14.029-8.1z" fill="#fff"/><path transform="matrix(.89034 -.455297 .89034 .455297 0 35.2852)" fill="url(#I)" d="M0 0h77.498v77.498H0z"/><path transform="matrix(.89034 .455297 0 1 0 35.2852)" fill="url(#J)" d="M0 0h77.498v70.57H0z"/><path transform="matrix(.89034 -.455297 0 1 68.9844 70.6592)" fill="url(#K)" d="M0 0h77.498v70.57H0z"/><path d="M21 178.5l315.417 71.497v369.451L87 475.447 21 178.5z" fill="url(#L)" style="mix-blend-mode:screen"/><g fill="#fff"><use href="#N"/><use href="#N"/><path d="M585 563.373L648 527v17.044l-63 36.373zm0 27L648 554v17.044l-63 36.373z"/></g><defs><linearGradient id="A" x1="6.972" y1="120.663" x2="40.975" y2="-67.288" href="#O"><stop stop-color="#13b3d3"/><stop offset="1" stop-color="#13edb1"/></linearGradient><linearGradient id="B" x1="6.972" y1="401.11" x2="291.947" y2="-72.749" href="#O"><stop stop-color="#13b3d3"/></linearGradient><linearGradient id="C" x1="5.398" y1="310.276" x2="225.75" y2="-56.439" href="#O"><stop stop-color="#13eeb0"/><stop offset="1" stop-color="#13b3d3"/></linearGradient><linearGradient id="D" x1="3.371" y1="581.605" x2="-72.077" y2="301.706" href="#O"><stop stop-color="#13eeb0" stop-opacity=".26"/><stop offset=".501" stop-color="#13b3d3" stop-opacity=".26"/><stop offset=".757" stop-color="#13b3d3" stop-opacity="0"/></linearGradient><linearGradient id="E" x1="295.059" y1="120.663" x2="285.564" y2="-22.499" href="#O"><stop stop-color="#13b3d3"/><stop offset="1" stop-color="#12ebb2"/></linearGradient><linearGradient id="F" x1="208.758" y1="56.541" x2="96.603" y2="-14.713" href="#O"><stop stop-color="#13efaf"/><stop offset="1" stop-color="#0eb3df"/></linearGradient><linearGradient id="G" x1="176.018" y1="0" x2="15.607" y2="167.074" href="#O"><stop stop-color="#13efaf"/><stop offset="1" stop-color="#0eb3df"/></linearGradient><linearGradient id="H" x1="162.925" y1="43.172" x2="82.934" y2="163.228" href="#O"><stop stop-color="#13efaf"/><stop offset="1" stop-color="#0eb3df"/></linearGradient><linearGradient id="I" x1="38.749" y1="0" x2="38.749" y2="77.499" href="#O"><stop stop-color="#13efaf"/><stop offset="1" stop-color="#0eb3df"/></linearGradient><linearGradient id="J" x1="67.368" y1="0" x2="3.541" y2="63.998" href="#O"><stop stop-color="#13efaf"/><stop offset="1" stop-color="#0eb3df"/></linearGradient><linearGradient id="K" x1="62.357" y1="17.164" x2="30.106" y2="63.763" href="#O"><stop stop-color="#13efaf"/><stop offset="1" stop-color="#0eb3df"/></linearGradient><linearGradient id="L" x1="85.316" y1="568.349" x2="74.979" y2="106.9" href="#O"><stop stop-color="#13eeb0" stop-opacity=".26"/><stop offset=".501" stop-color="#13b3d3" stop-opacity=".26"/><stop offset=".757" stop-color="#13b3d3" stop-opacity="0"/></linearGradient><path id="M" d="M252 680l63 36.373v17.044l-63-36.373z"/><path id="N" d="M585 536.373L648 500v17.044l-63 36.373z"/><linearGradient id="O" gradientUnits="userSpaceOnUse"/></defs></svg>

<svg xmlns="http://www.w3.org/2000/svg" fill="none" viewBox="0 0 658.59 774">
<g id="Group 122">
<rect id="Rectangle 63" width="72.7461" height="17.0437" transform="matrix(0.866025 0.5 0 1 252 680)" fill="white"/>
<rect id="Rectangle 62" width="72.7461" height="17.0437" transform="matrix(0.866025 0.5 0 1 252 654)" fill="white"/>
<rect id="Rectangle 61" width="72.7461" height="17.0437" transform="matrix(0.866025 0.5 0 1 24 555)" fill="white"/>
<rect id="Rectangle 53" width="372" height="112" transform="matrix(0.866025 0.5 0 1 14 476)" fill="url(#paint0_linear_153_42)"/>
<rect id="Rectangle 59" width="72.7461" height="17.0437" transform="matrix(0.866025 0.5 0 1 24 525.824)" fill="white"/>
<rect id="Rectangle 55" width="372" height="372.312" transform="matrix(0.866025 -0.5 0.866025 0.5 14 476)" fill="url(#paint1_linear_153_42)"/>
<g id="Rectangle 56" style="mix-blend-mode:screen">
<rect width="288.001" height="287.999" transform="matrix(0.866025 -0.5 0.866025 0.5 86.5859 475.001)" fill="url(#paint2_linear_153_42)"/>
</g>
<g id="Rectangle 58" style="mix-blend-mode:screen">
<path d="M336 303.002L657.5 133L585.417 476.052L336 620.053V303.002Z" fill="url(#paint3_linear_153_42)"/>
</g>
<rect id="Rectangle 54" width="372" height="112" transform="matrix(0.866025 -0.5 0 1 336 662)" fill="url(#paint4_linear_153_42)"/>
<rect id="Rectangle 50" width="202.486" height="203.753" transform="matrix(0.898826 -0.438306 0.898826 0.438306 154 105.751)" fill="url(#paint5_linear_153_42)"/>
<rect id="Rectangle 51" width="202.486" height="177.502" transform="matrix(0.898826 0.438306 0 1 154 105.751)" fill="url(#paint6_linear_153_42)"/>
<rect id="Rectangle 52" width="202.486" height="177.502" transform="matrix(0.898826 -0.438306 0 1 335.953 194.727)" fill="url(#paint7_linear_153_42)"/>
<g id="MB" filter="url(#filter0_d_153_42)">
<path d="M359.188 305.85V235.85L370.793 229.15L396.6 263.65L390.452 267.2L415.826 203.15L427.344 196.5L427.517 266.4L414.354 274L414.267 227.35L416.692 225.95L396.427 276.95L390.105 280.6L369.407 253.25L372.352 251.55V298.25L359.188 305.85ZM441.9 258.096V188.096L471.518 170.996C479.139 166.596 484.855 164.963 488.666 166.096C492.534 167.196 494.468 170.479 494.468 175.946C494.468 179.613 493.689 183.263 492.13 186.896C490.571 190.463 488.435 193.763 485.721 196.796C483.008 199.829 479.89 202.363 476.368 204.396L478.013 199.346C481.824 197.146 485.201 195.929 488.146 195.696C491.09 195.396 493.371 196.179 494.988 198.046C496.662 199.879 497.499 202.829 497.499 206.896C497.499 212.896 495.449 218.779 491.35 224.546C487.251 230.246 481.218 235.396 473.25 239.996L441.9 258.096ZM455.843 237.846L472.211 228.396C475.848 226.296 478.591 224.046 480.438 221.646C482.344 219.146 483.296 216.396 483.296 213.396C483.296 210.463 482.344 208.846 480.438 208.546C478.591 208.146 475.848 208.996 472.211 211.096L454.804 221.146V209.346L469.786 200.696C473.193 198.729 475.791 196.563 477.58 194.196C479.428 191.729 480.352 189.096 480.352 186.296C480.352 183.563 479.428 182.063 477.58 181.796C475.791 181.429 473.193 182.229 469.786 184.196L455.843 192.246V237.846Z" fill="white"/>
</g>
<g id="1" filter="url(#filter1_d_153_42)">
<path d="M234.731 268.35V204.35L240.793 214.85L222.606 204.35V191.35L248.76 206.45V276.45L234.731 268.35Z" fill="white"/>
</g>
<g id="Group 2">
<rect id="Rectangle 50_2" width="77.4985" height="77.4985" transform="matrix(0.89034 -0.455297 0.89034 0.455297 0 35.2852)" fill="url(#paint8_linear_153_42)"/>
<rect id="Rectangle 51_2" width="77.4985" height="70.5696" transform="matrix(0.89034 0.455297 0 1 0 35.2852)" fill="url(#paint9_linear_153_42)"/>
<rect id="Rectangle 52_2" width="77.4985" height="70.5696" transform="matrix(0.89034 -0.455297 0 1 68.9844 70.6592)" fill="url(#paint10_linear_153_42)"/>
</g>
<g id="Rectangle 57" style="mix-blend-mode:screen">
<path d="M21 178.5L336.417 249.997V619.448L86.9999 475.447L21 178.5Z" fill="url(#paint11_linear_153_42)"/>
</g>
<rect id="Rectangle 64" width="72.7461" height="17.0437" transform="matrix(0.866025 -0.5 0 1 585 536.373)" fill="white"/>
<rect id="Rectangle 66" width="72.7461" height="17.0437" transform="matrix(0.866025 -0.5 0 1 585 536.373)" fill="white"/>
<rect id="Rectangle 65" width="72.7461" height="17.0437" transform="matrix(0.866025 -0.5 0 1 585 563.373)" fill="white"/>
<rect id="Rectangle 67" width="72.7461" height="17.0437" transform="matrix(0.866025 -0.5 0 1 585 590.373)" fill="white"/>
</g>
<defs>
<filter id="filter0_d_153_42" x="355.188" y="155.996" width="146.312" height="157.854" filterUnits="userSpaceOnUse" color-interpolation-filters="sRGB">
<feFlood flood-opacity="0" result="BackgroundImageFix"/>
<feColorMatrix in="SourceAlpha" type="matrix" values="0 0 0 0 0 0 0 0 0 0 0 0 0 0 0 0 0 0 127 0" result="hardAlpha"/>
<feOffset dy="4"/>
<feGaussianBlur stdDeviation="2"/>
<feComposite in2="hardAlpha" operator="out"/>
<feColorMatrix type="matrix" values="0 0 0 0 0 0 0 0 0 0 0 0 0 0 0 0 0 0 0.25 0"/>
<feBlend mode="normal" in2="BackgroundImageFix" result="effect1_dropShadow_153_42"/>
<feBlend mode="normal" in="SourceGraphic" in2="effect1_dropShadow_153_42" result="shape"/>
</filter>
<filter id="filter1_d_153_42" x="218.609" y="191.35" width="34.1484" height="93.1006" filterUnits="userSpaceOnUse" color-interpolation-filters="sRGB">
<feFlood flood-opacity="0" result="BackgroundImageFix"/>
<feColorMatrix in="SourceAlpha" type="matrix" values="0 0 0 0 0 0 0 0 0 0 0 0 0 0 0 0 0 0 127 0" result="hardAlpha"/>
<feOffset dy="4"/>
<feGaussianBlur stdDeviation="2"/>
<feComposite in2="hardAlpha" operator="out"/>
<feColorMatrix type="matrix" values="0 0 0 0 0 0 0 0 0 0 0 0 0 0 0 0 0 0 0.25 0"/>
<feBlend mode="normal" in2="BackgroundImageFix" result="effect1_dropShadow_153_42"/>
<feBlend mode="normal" in="SourceGraphic" in2="effect1_dropShadow_153_42" result="shape"/>
</filter>
<linearGradient id="paint0_linear_153_42" x1="6.97221" y1="120.663" x2="40.975" y2="-67.2884" gradientUnits="userSpaceOnUse">
<stop stop-color="#13B3D3"/>
<stop offset="1" stop-color="#13EDB1"/>
</linearGradient>
<linearGradient id="paint1_linear_153_42" x1="6.97221" y1="401.11" x2="291.947" y2="-72.7487" gradientUnits="userSpaceOnUse">
<stop stop-color="#13B3D3"/>
</linearGradient>
<linearGradient id="paint2_linear_153_42" x1="5.39787" y1="310.276" x2="225.75" y2="-56.4389" gradientUnits="userSpaceOnUse">
<stop stop-color="#13EEB0"/>
<stop offset="1" stop-color="#13B3D3"/>
</linearGradient>
<linearGradient id="paint3_linear_153_42" x1="3.37078" y1="581.605" x2="-72.0772" y2="301.706" gradientUnits="userSpaceOnUse">
<stop stop-color="#13EEB0" stop-opacity="0.26"/>
<stop offset="0.501061" stop-color="#13B3D3" stop-opacity="0.26"/>
<stop offset="0.756675" stop-color="#13B3D3" stop-opacity="0"/>
</linearGradient>
<linearGradient id="paint4_linear_153_42" x1="295.059" y1="120.663" x2="285.564" y2="-22.4991" gradientUnits="userSpaceOnUse">
<stop stop-color="#13B3D3"/>
<stop offset="1" stop-color="#12EBB2"/>
</linearGradient>
<linearGradient id="paint5_linear_153_42" x1="208.758" y1="56.5408" x2="96.6026" y2="-14.7135" gradientUnits="userSpaceOnUse">
<stop stop-color="#13EFAF"/>
<stop offset="1" stop-color="#0EB3DF"/>
</linearGradient>
<linearGradient id="paint6_linear_153_42" x1="176.018" y1="-3.40912e-06" x2="15.6065" y2="167.074" gradientUnits="userSpaceOnUse">
<stop stop-color="#13EFAF"/>
<stop offset="1" stop-color="#0EB3DF"/>
</linearGradient>
<linearGradient id="paint7_linear_153_42" x1="162.925" y1="43.1716" x2="82.934" y2="163.228" gradientUnits="userSpaceOnUse">
<stop stop-color="#13EFAF"/>
<stop offset="1" stop-color="#0EB3DF"/>
</linearGradient>
<linearGradient id="paint8_linear_153_42" x1="38.7492" y1="0" x2="38.7492" y2="77.4985" gradientUnits="userSpaceOnUse">
<stop stop-color="#13EFAF"/>
<stop offset="1" stop-color="#0EB3DF"/>
</linearGradient>
<linearGradient id="paint9_linear_153_42" x1="67.3683" y1="-1.35537e-06" x2="3.54063" y2="63.9975" gradientUnits="userSpaceOnUse">
<stop stop-color="#13EFAF"/>
<stop offset="1" stop-color="#0EB3DF"/>
</linearGradient>
<linearGradient id="paint10_linear_153_42" x1="62.357" y1="17.1638" x2="30.1057" y2="63.7626" gradientUnits="userSpaceOnUse">
<stop stop-color="#13EFAF"/>
<stop offset="1" stop-color="#0EB3DF"/>
</linearGradient>
<linearGradient id="paint11_linear_153_42" x1="85.3156" y1="568.349" x2="74.979" y2="106.9" gradientUnits="userSpaceOnUse">
<stop stop-color="#13EEB0" stop-opacity="0.26"/>
<stop offset="0.501061" stop-color="#13B3D3" stop-opacity="0.26"/>
<stop offset="0.756675" stop-color="#13B3D3" stop-opacity="0"/>
</linearGradient>
</defs>
</svg>
